X: 37794
T: Sonny Beeman's Cows
R: reel
M: 4/4
K: Aminor
e|:edcB A3c|BEBd B3G|G^FGA Bcd=f|(3edc dB A3e|
edcB AEAc|BEBc AEAE|FEDF EA(3Bcd|ecdB A3e:|
|:eaa^g abc’f|(3edc dB AcBA|BE(3EEE BE(3EEE|BcdB ABcd|
eaa^g abc’f|edcB A3e|fdec (3dcB cd|ecdB A3e:|

